bicons/22x22/emblems/entity-function.svg

<?xml version="1.0" encoding="UTF-8" standalone="no"?>
<!-- Created with Inkscape (http://www.inkscape.org/) -->

<svg
   xmlns:dc="http://purl.org/dc/elements/1.1/"
   xmlns:cc="http://creativecommons.org/ns#"
   xmlns:rdf="http://www.w3.org/1999/02/22-rdf-syntax-ns#"
   xmlns:svg="http://www.w3.org/2000/svg"
   xmlns="http://www.w3.org/2000/svg"
   xmlns:xlink="http://www.w3.org/1999/xlink"
   xmlns:sodipodi="http://sodipodi.sourceforge.net/DTD/sodipodi-0.dtd"
   xmlns:inkscape="http://www.inkscape.org/namespaces/inkscape"
   width="210mm"
   height="297mm"
   viewBox="0 0 744.09448819 1052.3622047"
   id="svg2"
   version="1.1"
   inkscape:version="0.91 r13725"
   inkscape:export-xdpi="4.9499998"
   inkscape:export-ydpi="4.9499998"
   sodipodi:docname="entity-function.svg"
   inkscape:export-filename="C:\Users\johannes\Documents\Arbeit\RRZE\github3\bicons\22x22\emblems\entity-function.png">
  <defs
     id="defs4">
    <linearGradient
       id="linearGradient2224">
      <stop
         id="stop2226"
         offset="0"
         style="stop-color:#7c7c7c;stop-opacity:1;" />
      <stop
         id="stop2228"
         offset="1"
         style="stop-color:#b8b8b8;stop-opacity:1;" />
    </linearGradient>
    <linearGradient
       id="linearGradient15218">
      <stop
         id="stop15220"
         offset="0"
         style="stop-color:#eeeeef;stop-opacity:1;" />
      <stop
         id="stop2736"
         offset="0.59928656"
         style="stop-color:#d3d7cf;stop-opacity:1;" />
      <stop
         id="stop2738"
         offset="0.82758623"
         style="stop-color:#ffffff;stop-opacity:1;" />
      <stop
         id="stop15222"
         offset="1"
         style="stop-color:#d3d7cf;stop-opacity:1;" />
    </linearGradient>
    <pattern
       y="0"
       x="0"
       height="6"
       width="6"
       patternUnits="userSpaceOnUse"
       id="EMFhbasepattern" />
    <pattern
       y="0"
       x="0"
       height="6"
       width="6"
       patternUnits="userSpaceOnUse"
       id="EMFhbasepattern-5" />
    <pattern
       y="0"
       x="0"
       height="6"
       width="6"
       patternUnits="userSpaceOnUse"
       id="EMFhbasepattern-57" />
    <linearGradient
       inkscape:collect="always"
       xlink:href="#linearGradient4441"
       id="linearGradient4447"
       x1="18.18"
       y1="381.77985"
       x2="381.77997"
       y2="18.179979"
       gradientUnits="userSpaceOnUse"
       gradientTransform="translate(190.11838,322.08145)" />
    <linearGradient
       inkscape:collect="always"
       id="linearGradient4441">
      <stop
         style="stop-color:#4e505d;stop-opacity:1;"
         offset="0"
         id="stop4443" />
      <stop
         style="stop-color:#7a859c;stop-opacity:1"
         offset="1"
         id="stop4445" />
    </linearGradient>
  </defs>
  <sodipodi:namedview
     id="base"
     pagecolor="#ffffff"
     bordercolor="#666666"
     borderopacity="1.0"
     inkscape:pageopacity="0.0"
     inkscape:pageshadow="2"
     inkscape:zoom="1"
     inkscape:cx="580.67052"
     inkscape:cy="511.68769"
     inkscape:document-units="px"
     inkscape:current-layer="layer1"
     showgrid="false"
     showguides="true"
     inkscape:guide-bbox="true"
     inkscape:window-width="1600"
     inkscape:window-height="837"
     inkscape:window-x="-4"
     inkscape:window-y="-4"
     inkscape:window-maximized="1"
     inkscape:snap-bbox="true"
     inkscape:bbox-paths="true"
     inkscape:bbox-nodes="true">
    <sodipodi:guide
       position="560,730.00002"
       orientation="0,1"
       id="guide3338" />
    <sodipodi:guide
       position="560,330.00001"
       orientation="0,1"
       id="guide3340" />
    <sodipodi:guide
       position="190,475.00001"
       orientation="1,0"
       id="guide3344" />
    <sodipodi:guide
       position="590,451.00001"
       orientation="1,0"
       id="guide3346" />
    <inkscape:grid
       type="xygrid"
       id="grid3440" />
  </sodipodi:namedview>
  <metadata
     id="metadata7">
    <rdf:RDF>
      <cc:Work
         rdf:about="">
        <dc:format>image/svg+xml</dc:format>
        <dc:type
           rdf:resource="http://purl.org/dc/dcmitype/StillImage" />
        <dc:title>entity function</dc:title>
        <dc:date>June 2015</dc:date>
        <dc:creator>
          <cc:Agent>
            <dc:title>Johannes Hechler</dc:title>
          </cc:Agent>
        </dc:creator>
        <dc:rights>
          <cc:Agent>
            <dc:title>Johannes Hechler</dc:title>
          </cc:Agent>
        </dc:rights>
        <dc:publisher>
          <cc:Agent>
            <dc:title>RRZE</dc:title>
          </cc:Agent>
        </dc:publisher>
        <dc:contributor>
          <cc:Agent>
            <dc:title>Ute Weber, Hendrik Eggers</dc:title>
          </cc:Agent>
        </dc:contributor>
      </cc:Work>
    </rdf:RDF>
  </metadata>
  <g
     inkscape:label="Ebene 1"
     inkscape:groupmode="layer"
     id="layer1">
    <g
       id="g4174">
      <rect
         y="322.36221"
         x="190"
         height="400"
         width="400"
         id="rect4160"
         style="opacity:1;fill:none;fill-opacity:1;stroke:none;stroke-width:23;stroke-linecap:butt;stroke-linejoin:round;stroke-miterlimit:4;stroke-dasharray:none;stroke-opacity:1" />
      <path
         sodipodi:nodetypes="ssssscssccccscsc"
         inkscape:connector-curvature="0"
         id="path4420"
         d="m 253.74924,340.26114 c -25.10226,-6.5e-4 -45.45182,20.34892 -45.45117,45.45117 4.2e-4,25.10149 20.34967,45.44987 45.45117,45.44922 25.10074,-4.3e-4 45.4488,-20.34849 45.44922,-45.44922 6.5e-4,-25.10149 -20.34772,-45.45074 -45.44922,-45.45117 z m 273.06836,0.0645 c -25.10074,4.3e-4 -45.4488,20.34849 -45.44922,45.44922 -6.5e-4,25.10149 20.34772,45.45074 45.44922,45.45117 25.10226,6.5e-4 45.45182,-20.34892 45.45117,-45.45117 -4e-4,-25.10151 -20.34965,-45.44992 -45.45117,-45.44927 z M 253.73557,613.40762 c -25.1015,4.3e-4 -45.44987,20.34968 -45.44922,45.45117 4.3e-4,25.10071 20.34849,45.44881 45.44922,45.44921 25.10073,-4e-4 45.44879,-20.3485 45.44922,-45.44921 6.5e-4,-25.10149 -20.34772,-45.45074 -45.44922,-45.45117 z"
         style="color:#000000;clip-rule:nonzero;display:inline;overflow:visible;visibility:visible;opacity:1;isolation:auto;mix-blend-mode:normal;color-interpolation:sRGB;color-interpolation-filters:linearRGB;solid-color:#000000;solid-opacity:1;fill:url(#linearGradient4447);fill-opacity:1;fill-rule:nonzero;stroke:none;stroke-width:1px;stroke-linecap:butt;stroke-linejoin:miter;stroke-miterlimit:4;stroke-dasharray:none;stroke-dashoffset:0;stroke-opacity:1;color-rendering:auto;image-rendering:auto;shape-rendering:auto;text-rendering:auto;enable-background:accumulate" />
      <path
         id="rect4428"
         d="m 317.37891,376.62109 0,18.17969 145.43945,0 0,-18.17969 -145.43945,0 z m -72.72071,72.7207 0,145.43946 18.17969,0 0,-145.43946 -18.17969,0 z m 272.70118,0 0,50.14453 a 18.0018,18.0018 0 0 1 0.10351,0.33985 l 3.80859,15.18555 12.20704,-7.65235 a 18.0018,18.0018 0 0 1 2.06054,-1.10547 l 0,-56.91211 -18.17968,0 z m 18.17968,99.2168 -7.60742,4.76758 a 18.0018,18.0018 0 0 1 -10.57226,2.71679 l 0,38.73829 18.17968,0 0,-46.22266 z m -218.16015,100.76172 0,18.18164 61.96484,0 7.10547,-12.37305 -18.99219,-4.72265 a 18.0018,18.0018 0 0 1 -3.05859,-1.08594 l -47.01953,0 z m 107.70703,0 a 18.0018,18.0018 0 0 1 -1.71875,13.81445 l -2.50977,4.36719 41.96094,0 0,-18.18164 -37.73242,0 z"
         style="color:#000000;clip-rule:nonzero;display:inline;overflow:visible;visibility:visible;opacity:1;isolation:auto;mix-blend-mode:normal;color-interpolation:sRGB;color-interpolation-filters:linearRGB;solid-color:#000000;solid-opacity:1;fill:#4e505d;fill-opacity:1;fill-rule:nonzero;stroke:none;stroke-width:1px;stroke-linecap:butt;stroke-linejoin:miter;stroke-miterlimit:4;stroke-dasharray:none;stroke-dashoffset:0;stroke-opacity:1;color-rendering:auto;image-rendering:auto;shape-rendering:auto;text-rendering:auto;enable-background:accumulate"
         inkscape:connector-curvature="0" />
      <path
         style="fill:#99b000;fill-opacity:1;fill-rule:evenodd;stroke:none"
         d="m 462.81944,504.20226 -7.36342,29.2898 c -4.90893,1.5954 -9.65425,3.5999 -14.19503,6.01339 l -26.13988,-14.89034 -25.73082,26.79446 16.0766,25.48536 c -1.8817,3.80443 -3.4362,7.69069 -4.70435,11.69965 l -28.96254,7.24068 0,37.10287 29.78069,7.40431 0,-0.0409 c 1.63633,4.78619 3.68168,9.40886 6.17704,13.86782 l -15.01307,26.14014 26.8763,25.6487 25.97628,-16.2813 -0.81816,-0.7363 c 3.64079,1.7589 7.40431,3.2725 11.24965,4.4998 l 7.28161,28.9218 37.18468,0 7.40432,-29.4945 c 4.66349,-1.5136 9.20427,-3.4772 13.4996,-5.8084 l 26.30376,14.9717 25.77138,-26.7532 -16.28132,-25.81287 c 1.63632,-3.35444 3.02717,-6.83161 4.21351,-10.39054 l 28.5537,-7.15894 0,-37.06195 -28.59461,-7.15888 c -1.55449,-4.86802 -3.55898,-9.57243 -5.972,-14.1132 l 14.48085,-25.28079 -26.83501,-25.68991 -24.66744,15.463 c -3.55899,-1.75898 -7.24068,-3.27258 -11.00422,-4.49983 l -7.36343,-29.37159 -37.18467,0 z"
         id="path4160"
         inkscape:connector-curvature="0" />
      <path
         style="fill:#ffffff;fill-opacity:1;fill-rule:nonzero;stroke:none"
         d="m 517.24,613.28193 c 0,20.09379 -16.27472,36.36027 -36.35971,36.36027 -20.04075,0 -36.31545,-16.26648 -36.36029,-36.36027 0,-20.09327 16.27471,-36.35971 36.36029,-36.35971 20.08499,0 36.35971,16.26644 36.35971,36.35971 l -36.35971,0 z"
         id="path4162"
         inkscape:connector-curvature="0" />
    </g>
  </g>
</svg>

<?xml version="1.0" encoding="UTF-8" standalone="no"?>
<!-- Created with Inkscape (http://www.inkscape.org/) -->

<svg
   xmlns:dc="http://purl.org/dc/elements/1.1/"
   xmlns:cc="http://creativecommons.org/ns#"
   xmlns:rdf="http://www.w3.org/1999/02/22-rdf-syntax-ns#"
   xmlns:svg="http://www.w3.org/2000/svg"
   xmlns="http://www.w3.org/2000/svg"
   xmlns:xlink="http://www.w3.org/1999/xlink"
   xmlns:sodipodi="http://sodipodi.sourceforge.net/DTD/sodipodi-0.dtd"
   xmlns:inkscape="http://www.inkscape.org/namespaces/inkscape"
   width="210mm"
   height="297mm"
   viewBox="0 0 744.09448819 1052.3622047"
   id="svg2"
   version="1.1"
   inkscape:version="0.91 r13725"
   inkscape:export-xdpi="4.9499998"
   inkscape:export-ydpi="4.9499998"
   sodipodi:docname="entity-function.svg"
   inkscape:export-filename="D:\Dokumente\Arbeit\RRZE\github\bicons\22x22\emblems\entity-function.png">
  <defs
     id="defs4">
    <linearGradient
       id="linearGradient2224">
      <stop
         id="stop2226"
         offset="0"
         style="stop-color:#7c7c7c;stop-opacity:1;" />
      <stop
         id="stop2228"
         offset="1"
         style="stop-color:#b8b8b8;stop-opacity:1;" />
    </linearGradient>
    <linearGradient
       id="linearGradient15218">
      <stop
         id="stop15220"
         offset="0"
         style="stop-color:#eeeeef;stop-opacity:1;" />
      <stop
         id="stop2736"
         offset="0.59928656"
         style="stop-color:#d3d7cf;stop-opacity:1;" />
      <stop
         id="stop2738"
         offset="0.82758623"
         style="stop-color:#ffffff;stop-opacity:1;" />
      <stop
         id="stop15222"
         offset="1"
         style="stop-color:#d3d7cf;stop-opacity:1;" />
    </linearGradient>
    <pattern
       y="0"
       x="0"
       height="6"
       width="6"
       patternUnits="userSpaceOnUse"
       id="EMFhbasepattern" />
    <pattern
       y="0"
       x="0"
       height="6"
       width="6"
       patternUnits="userSpaceOnUse"
       id="EMFhbasepattern-5" />
    <pattern
       y="0"
       x="0"
       height="6"
       width="6"
       patternUnits="userSpaceOnUse"
       id="EMFhbasepattern-57" />
    <linearGradient
       inkscape:collect="always"
       xlink:href="#linearGradient4441"
       id="linearGradient4447"
       x1="18.18"
       y1="381.77985"
       x2="381.77997"
       y2="18.179979"
       gradientUnits="userSpaceOnUse"
       gradientTransform="translate(190.11838,322.08145)" />
    <linearGradient
       inkscape:collect="always"
       id="linearGradient4441">
      <stop
         style="stop-color:#4e505d;stop-opacity:1;"
         offset="0"
         id="stop4443" />
      <stop
         style="stop-color:#7a859c;stop-opacity:1"
         offset="1"
         id="stop4445" />
    </linearGradient>
  </defs>
  <sodipodi:namedview
     id="base"
     pagecolor="#ffffff"
     bordercolor="#666666"
     borderopacity="1.0"
     inkscape:pageopacity="0.0"
     inkscape:pageshadow="2"
     inkscape:zoom="1"
     inkscape:cx="372.67052"
     inkscape:cy="511.68769"
     inkscape:document-units="px"
     inkscape:current-layer="layer1"
     showgrid="false"
     showguides="true"
     inkscape:guide-bbox="true"
     inkscape:window-width="1600"
     inkscape:window-height="837"
     inkscape:window-x="-4"
     inkscape:window-y="-4"
     inkscape:window-maximized="1"
     inkscape:snap-bbox="true"
     inkscape:bbox-paths="true"
     inkscape:bbox-nodes="true">
    <sodipodi:guide
       position="560,730.00002"
       orientation="0,1"
       id="guide3338" />
    <sodipodi:guide
       position="560,330.00001"
       orientation="0,1"
       id="guide3340" />
    <sodipodi:guide
       position="190,475.00001"
       orientation="1,0"
       id="guide3344" />
    <sodipodi:guide
       position="590,451.00001"
       orientation="1,0"
       id="guide3346" />
    <inkscape:grid
       type="xygrid"
       id="grid3440" />
  </sodipodi:namedview>
  <metadata
     id="metadata7">
    <rdf:RDF>
      <cc:Work
         rdf:about="">
        <dc:format>image/svg+xml</dc:format>
        <dc:type
           rdf:resource="http://purl.org/dc/dcmitype/StillImage" />
        <dc:title>entity function</dc:title>
        <dc:date>June 2015</dc:date>
        <dc:creator>
          <cc:Agent>
            <dc:title>Johannes Hechler</dc:title>
          </cc:Agent>
        </dc:creator>
        <dc:rights>
          <cc:Agent>
            <dc:title>Johannes Hechler</dc:title>
          </cc:Agent>
        </dc:rights>
        <dc:publisher>
          <cc:Agent>
            <dc:title>RRZE</dc:title>
          </cc:Agent>
        </dc:publisher>
        <dc:contributor>
          <cc:Agent>
            <dc:title>Ute Weber, Hendrik Eggers</dc:title>
          </cc:Agent>
        </dc:contributor>
      </cc:Work>
    </rdf:RDF>
  </metadata>
  <g
     inkscape:label="Ebene 1"
     inkscape:groupmode="layer"
     id="layer1">
    <g
       id="g4165">
      <rect
         y="322.36221"
         x="190"
         height="400"
         width="400"
         id="rect4160"
         style="opacity:1;fill:none;fill-opacity:1;stroke:none;stroke-width:23;stroke-linecap:butt;stroke-linejoin:round;stroke-miterlimit:4;stroke-dasharray:none;stroke-opacity:1" />
      <path
         sodipodi:nodetypes="ssssscssccccscsc"
         inkscape:connector-curvature="0"
         id="path4420"
         d="m 253.74924,340.26114 c -25.10226,-6.5e-4 -45.45182,20.34892 -45.45117,45.45117 4.2e-4,25.10149 20.34967,45.44987 45.45117,45.44922 25.10074,-4.3e-4 45.4488,-20.34849 45.44922,-45.44922 6.5e-4,-25.10149 -20.34772,-45.45074 -45.44922,-45.45117 z m 273.06836,0.0645 c -25.10074,4.3e-4 -45.4488,20.34849 -45.44922,45.44922 -6.5e-4,25.10149 20.34772,45.45074 45.44922,45.45117 25.10226,6.5e-4 45.45182,-20.34892 45.45117,-45.45117 -4e-4,-25.10151 -20.34965,-45.44992 -45.45117,-45.44927 z M 253.73557,613.40762 c -25.1015,4.3e-4 -45.44987,20.34968 -45.44922,45.45117 4.3e-4,25.10071 20.34849,45.44881 45.44922,45.44921 25.10073,-4e-4 45.44879,-20.3485 45.44922,-45.44921 6.5e-4,-25.10149 -20.34772,-45.45074 -45.44922,-45.45117 z"
         style="color:#000000;clip-rule:nonzero;display:inline;overflow:visible;visibility:visible;opacity:1;isolation:auto;mix-blend-mode:normal;color-interpolation:sRGB;color-interpolation-filters:linearRGB;solid-color:#000000;solid-opacity:1;fill:url(#linearGradient4447);fill-opacity:1;fill-rule:nonzero;stroke:none;stroke-width:1px;stroke-linecap:butt;stroke-linejoin:miter;stroke-miterlimit:4;stroke-dasharray:none;stroke-dashoffset:0;stroke-opacity:1;color-rendering:auto;image-rendering:auto;shape-rendering:auto;text-rendering:auto;enable-background:accumulate" />
      <path
         id="rect4428"
         d="m 317.37891,376.62109 0,18.17969 145.43945,0 0,-18.17969 -145.43945,0 z m -72.72071,72.7207 0,145.43946 18.17969,0 0,-145.43946 -18.17969,0 z m 272.70118,0 0,50.14453 a 18.0018,18.0018 0 0 1 0.10351,0.33985 l 3.80859,15.18555 12.20704,-7.65235 a 18.0018,18.0018 0 0 1 2.06054,-1.10547 l 0,-56.91211 -18.17968,0 z m 18.17968,99.2168 -7.60742,4.76758 a 18.0018,18.0018 0 0 1 -10.57226,2.71679 l 0,38.73829 18.17968,0 0,-46.22266 z m -218.16015,100.76172 0,18.18164 61.96484,0 7.10547,-12.37305 -18.99219,-4.72265 a 18.0018,18.0018 0 0 1 -3.05859,-1.08594 l -47.01953,0 z m 107.70703,0 a 18.0018,18.0018 0 0 1 -1.71875,13.81445 l -2.50977,4.36719 41.96094,0 0,-18.18164 -37.73242,0 z"
         style="color:#000000;clip-rule:nonzero;display:inline;overflow:visible;visibility:visible;opacity:1;isolation:auto;mix-blend-mode:normal;color-interpolation:sRGB;color-interpolation-filters:linearRGB;solid-color:#000000;solid-opacity:1;fill:#4e505d;fill-opacity:1;fill-rule:nonzero;stroke:none;stroke-width:1px;stroke-linecap:butt;stroke-linejoin:miter;stroke-miterlimit:4;stroke-dasharray:none;stroke-dashoffset:0;stroke-opacity:1;color-rendering:auto;image-rendering:auto;shape-rendering:auto;text-rendering:auto;enable-background:accumulate"
         inkscape:connector-curvature="0" />
      <path
         id="path4160"
         d="M 462.82031 504.20312 L 455.45508 533.49219 C 450.54615 535.08759 445.8025 537.09237 441.26172 539.50586 L 415.12109 524.61523 L 389.39062 551.41016 L 405.4668 576.89453 C 403.5851 580.69896 402.02987 584.58479 400.76172 588.59375 L 371.80078 595.83594 L 371.80078 632.9375 L 401.58008 640.3418 L 401.58008 640.30078 C 403.21641 645.08697 405.26245 649.71096 407.75781 654.16992 L 392.74414 680.30859 L 419.62109 705.95898 L 445.59766 689.67773 L 444.7793 688.94141 C 448.42009 690.70031 452.18396 692.21215 456.0293 693.43945 L 463.31055 722.36133 L 500.49414 722.36133 L 507.89844 692.86719 C 512.56193 691.35359 517.10311 689.38979 521.39844 687.05859 L 547.70312 702.03125 L 573.47461 675.27734 L 557.19336 649.46484 C 558.82968 646.1104 560.21991 642.63315 561.40625 639.07422 L 589.96094 631.91602 L 589.96094 594.85352 L 561.36523 587.69531 C 559.81074 582.82729 557.8056 578.1228 555.39258 573.58203 L 569.875 548.30078 L 543.03906 522.61133 L 518.37109 538.07422 C 514.8121 536.31524 511.13073 534.80147 507.36719 533.57422 L 500.00391 504.20312 L 462.82031 504.20312 z M 480.88086 576.92188 C 500.96585 576.92188 517.24023 593.18798 517.24023 613.28125 C 517.24023 633.37504 500.96585 649.64258 480.88086 649.64258 C 460.84011 649.64258 444.56437 633.37504 444.51953 613.28125 C 444.51953 593.18798 460.79528 576.92187 480.88086 576.92188 z "
         style="fill:#99b000;fill-opacity:1;fill-rule:evenodd;stroke:none" />
    </g>
  </g>
</svg>
